X:1
T:Polonaise
T:Polonaise
T:BWV anh. 119
T:Johann Sebastian Bach?
C:Johann Sebastian Bach?
%%score 1 2
L:1/8
M:3/4
K:Gmin
V:1 treble 
V:2 bass 
V:1
 G>A B2 c2 | AA/B/ c4 | BB/c/dgcg | BA/B/ G4 :: B>c d2 f2 | dc/B/ A/B/c/A/ F2 | fdBf g/f/e/d/ | %7
 ecAe f/e/d/c/ | dc/d/ edcB | A/B/c/A/ B2 B,2 | d2 e2 G2 | ^FF/G/ ADFA | d2 e2 G2 | ^FF/G/ ADFA | %14
 dd/e/ dd/e/ dg | BA/B/ G2 G,2 :| %16
V:2
 G,2 G,2 G,2 | G,2 ^F,=E,F,D, | G,2 G,,2 C,2 | D,2 G,G,,B,,D, :: G,>A, B,2 A,2 | B,2 F,2 F,E, | %6
 D,2 G,2 E,2 | C,2 F,2 D,2 | B,,2 G,2 E,2 | F,E,D,E,D,C, | B,,2 C,2 E,2 | D,2 D,2 C,2 | %12
 B,,2 C,2 E,2 | D,4 C,2 | B,,2 G,,2 B,,2 | D,2 G,,4 :| %16

